X:32
T:Crabs in the Skillet
Z: id:dc-jig-26
M:6/8
L:1/8
K:G Dorian
D|G3 d2F|G2A B2c|d_ed cBA|dcB AGF|!
G3 d2F|G2A B2d|c=Bc fed|cAF F2:|!
d|gag gfe|fgf fed|cde fed|cAG G2d|!
gag gfe|fgf fed|cde fed|cAF F2:|!
D|G3 A3|B3 c3|d_ed cBA|dcB AGF|!
G3 A3|B3 d3|c=Bc fed|cAF F2:|!

